packages/design-assets/icons/16px/Image.svg

<?xml version="1.0" encoding="UTF-8"?>
<svg width="16px" height="16px" viewBox="0 0 16 16" version="1.1" xmlns="http://www.w3.org/2000/svg" xmlns:xlink="http://www.w3.org/1999/xlink">
    <!-- Generator: Sketch 54.1 (76490) - https://sketchapp.com -->
    <title>Icons/16px/Image</title>
    <desc>Created with Sketch.</desc>
    <g id="Icons/16px/Image" stroke="none" stroke-width="1" fill="none" fill-rule="evenodd">
        <path d="M-1.15748596e-11,13.5025198 L-3.81942065e-12,13.4970508 L-3.55271368e-15,1.06666667 C-3.55271368e-15,0.477866667 0.477866667,0 1.06666667,0 L14.9333333,0 C15.5221333,0 16,0.477866667 16,1.06666667 L16,11.497048 L16,11.5025198 L16,14.9333333 C16,15.5221333 15.5221333,16 14.9333333,16 L1.06666667,16 C0.477866667,16 -3.55271368e-15,15.5221333 -3.55271368e-15,14.9333333 L-3.55271368e-15,13.5025247 L-1.15748596e-11,13.5025198 Z M2,10.9629797 L4.00227807,8.81768175 C4.39761535,8.39410608 5.06905131,8.39410608 5.4643886,8.81768175 L7.44794759,10.9429235 L10.4653864,6.90171077 C10.8383332,6.40222844 11.5723952,6.36197453 11.9977219,6.81768175 L14,8.96297968 L14,2 L2,2 L2,10.9629797 Z M14,11.8941632 L11.3520524,9.05707648 L8.33461356,13.0982892 C7.96166675,13.5977716 7.22760481,13.6380255 6.80227807,13.1823183 L4.73333333,10.9655918 L2,13.8941632 L2,14 L14,14 L14,11.8941632 L14,11.8941632 Z M6.5,7 C5.67157288,7 5,6.32842712 5,5.5 C5,4.67157288 5.67157288,4 6.5,4 C7.32842712,4 8,4.67157288 8,5.5 C8,6.32842712 7.32842712,7 6.5,7 Z" id="i-16-image" fill="#818F99"></path>
    </g>
</svg>

<svg width="16" height="16" xmlns="http://www.w3.org/2000/svg"><path d="M0 13.503V1.067C0 .477.478 0 1.067 0h13.866C15.523 0 16 .478 16 1.067v13.866c0 .59-.478 1.067-1.067 1.067H1.067A1.067 1.067 0 0 1 0 14.933v-1.43zm2-2.54l2.002-2.145a1 1 0 0 1 1.462 0l1.984 2.125 3.017-4.041a1 1 0 0 1 1.533-.084L14 8.963V2H2v8.963zm12 .931l-2.648-2.837-3.017 4.041a1 1 0 0 1-1.533.084l-2.069-2.216L2 13.894V14h12v-2.106zM6.5 7a1.5 1.5 0 1 1 0-3 1.5 1.5 0 0 1 0 3z" fill="#818F99" fill-rule="evenodd"/></svg>
